X: 37249
T: Sixpenny Money
R: jig
M: 6/8
K: Dmajor
|:d/e/|fAA fAA|BAG FGE|DED AFA|def e2 d/e/|
fAA fAA|BAG FGE|DED AFA|def d2:|
|:d/e/|fef gfg|afd ede|fef gfg|afd e2 d|
fef gfg|afd edB|ABA AFA|def d2:|

